images/ios.svg

<svg width="26" height="26" viewBox="0 0 26 26" fill="none" xmlns="http://www.w3.org/2000/svg">
<rect x="1.7334" y="1.73334" width="22.5333" height="22.5333" fill="#8B8BB8"/>
<path d="M8.46889 18.0047L8.47108 18.0054L7.67582 19.4007C7.38554 19.91 6.74258 20.0846 6.23979 19.7905C5.73702 19.4965 5.56474 18.8451 5.85502 18.3358L6.44086 17.3079L6.49708 17.2092C6.59749 17.063 6.84527 16.8107 7.34091 16.8581C7.34091 16.8581 8.50724 16.9864 8.59163 17.6005C8.59165 17.6005 8.60316 17.8025 8.46889 18.0047ZM19.7484 14.4407H17.2685C17.0996 14.4293 17.0259 14.3682 16.9969 14.3326L16.9951 14.3294L14.3404 9.67152L14.337 9.67386L14.1777 9.4426C13.9168 9.03841 13.5025 10.0722 13.5025 10.0722C13.0078 11.2242 13.5727 12.5339 13.7697 12.9297L17.4569 19.3993C17.7471 19.9086 18.3901 20.0831 18.8929 19.789C19.3956 19.495 19.5679 18.8437 19.2776 18.3343L18.3556 16.7166C18.3378 16.6774 18.3067 16.571 18.4958 16.5705H19.7484C20.329 16.5705 20.7997 16.0938 20.7997 15.5056C20.7997 14.9175 20.329 14.4407 19.7484 14.4407ZM14.9316 15.8884C14.9316 15.8884 15.064 16.5705 14.5518 16.5705H14.0396V16.5705H5.38424C4.80367 16.5705 4.33301 16.0938 4.33301 15.5056C4.33301 14.9175 4.80367 14.4407 5.38424 14.4407H7.74113C8.12164 14.4184 8.21185 14.1959 8.21185 14.1959L8.21393 14.1969L11.2904 8.79885L11.2895 8.79866C11.3456 8.69438 11.2989 8.59585 11.2908 8.58025L10.2748 6.79757C9.98448 6.28823 10.1568 5.63692 10.6595 5.34287C11.1623 5.04879 11.8053 5.22331 12.0956 5.73265L12.5668 6.55946L13.0371 5.73412C13.3274 5.22478 13.9704 5.05026 14.4732 5.34434C14.976 5.63842 15.1482 6.28972 14.8579 6.79904L10.5769 14.3106C10.5581 14.3563 10.5524 14.4281 10.6917 14.4407H13.2507L13.2512 14.466C13.2512 14.466 14.7302 14.4893 14.9316 15.8884Z" fill="white"/>
</svg>

<svg width="26" height="26" fill="none" xmlns="http://www.w3.org/2000/svg"><path fill="#8B8BB8" d="M1.733 1.733h22.533v22.533H1.733z"/><path d="M8.469 18.005h.002l-.795 1.396c-.29.509-.933.684-1.436.39a1.073 1.073 0 01-.385-1.455l.586-1.028.056-.099c.1-.146.348-.398.844-.35 0 0 1.166.127 1.25.741 0 0 .012.202-.122.405zm11.28-3.564h-2.48c-.17-.012-.243-.073-.272-.108l-.002-.004-2.655-4.657-.003.002-.16-.231c-.26-.405-.675.63-.675.63-.494 1.151.07 2.46.268 2.857l3.687 6.47c.29.509.933.683 1.436.389.503-.294.675-.945.385-1.455l-.922-1.617c-.018-.04-.05-.146.14-.146h1.252c.581 0 1.052-.477 1.052-1.065s-.471-1.065-1.052-1.065zm-4.817 1.447s.132.682-.38.682H5.384c-.58 0-1.051-.476-1.051-1.064 0-.588.47-1.065 1.051-1.065h2.357c.38-.023.47-.245.47-.245h.003L11.29 8.8a.24.24 0 000-.219l-1.015-1.782c-.29-.51-.118-1.161.384-1.455a1.044 1.044 0 011.437.39l.47.826.471-.825c.29-.51.933-.684 1.436-.39.503.294.675.946.385 1.455l-4.281 7.512c-.019.045-.025.117.115.13h2.559v.025s1.48.023 1.68 1.422z" fill="#fff"/></svg>
